X:361
%%etbk:tnset id:174,pos:3,rep:3x,ant:
%%etbk:wsite http://www.trad.katesplacedoolin.com/tunes/millersmaggot.html
%%etbk:skill ?
%%etbk:pldat 2013-11-16T14:56,2013-10-23T18:32,2013-10-21T17:47,2013-10-20T14:11,2013-10-02T16:28,2013-09-15T16:43,2013-08-29T15:55,2013-08-27T18:03,2013-08-26T18:09,2013-05-23T18:49,2013-05-21T17:50,2013-05-18T13:30,2013-05-14T18:07,2013-05-12T18:18,2013-05-07T19:04
T:Miller's Maggot, The
Z: Piano Box Version by Martin Fleischmann
H: Created 2013-02-19 /  Last Modified 2013-03-27
R:Jig
M:6/8
L:1/8
K: Gmaj
|:  "G"!1!G2A !3!B2A | !3!B2A !3!B!1!G!2!E | !1!G2A !3!B2A | "D"!3!B!5!ee edB|
"G"!1!G2A !3!B2A | !3!B2A !3!B!1!GG | "D"!5!gfe !2!d!1!B!2!A |1 !3!B!5!ee !5!e!4!dB:|2 !1!B!3!ee !2!d!1!B!2!d||
|: "C"!3!e2f !5!gfe | "G"!2!d2!1!B !3!BAG | "C"!2!e2f !4!g!3!f!1!e | "D"!4!a2a !5!ba!3!g |
"C"!1!e2!4!f !5!gfe | "G"!2!d2!1!B !3!BAG | "D"!2!A2B !4!cBA |1 !3!B!5!e!3!e !2!d!1!B!2!d:|2 !3!B!5!ee !5!e!4!d!3!B||
